src/images/icon/icon_more_black.svg

<svg height="20" viewBox="0 0 20 20" width="20" xmlns="http://www.w3.org/2000/svg"><path d="m3.5 8.5c.82842712 0 1.5.67157288 1.5 1.5 0 .8284271-.67157288 1.5-1.5 1.5s-1.5-.6715729-1.5-1.5c0-.82842712.67157288-1.5 1.5-1.5zm6.5 0c.8284271 0 1.5.67157288 1.5 1.5 0 .8284271-.6715729 1.5-1.5 1.5-.82842712 0-1.5-.6715729-1.5-1.5 0-.82842712.67157288-1.5 1.5-1.5zm6.5 0c.8284271 0 1.5.67157288 1.5 1.5 0 .8284271-.6715729 1.5-1.5 1.5s-1.5-.6715729-1.5-1.5c0-.82842712.6715729-1.5 1.5-1.5z" fill="#fff" fill-rule="evenodd" stroke="#fff"/></svg>

<?xml version="1.0" encoding="UTF-8"?>
<svg width="20px" height="20px" viewBox="0 0 20 20" version="1.1" xmlns="http://www.w3.org/2000/svg" xmlns:xlink="http://www.w3.org/1999/xlink">
    
    <g id="Dashboard" stroke="#fff" stroke-width="1" fill="#fff" fill-rule="evenodd">
        <g id="00-Menu-交互备份" transform="translate(-339.000000, -383.000000)" fill="#fff">
            <g id="icon_more" transform="translate(339.000000, 383.000000)">
                <path d="M3.5,8.5 C4.32842712,8.5 5,9.17157288 5,10 C5,10.8284271 4.32842712,11.5 3.5,11.5 C2.67157288,11.5 2,10.8284271 2,10 C2,9.17157288 2.67157288,8.5 3.5,8.5 Z M10,8.5 C10.8284271,8.5 11.5,9.17157288 11.5,10 C11.5,10.8284271 10.8284271,11.5 10,11.5 C9.17157288,11.5 8.5,10.8284271 8.5,10 C8.5,9.17157288 9.17157288,8.5 10,8.5 Z M16.5,8.5 C17.3284271,8.5 18,9.17157288 18,10 C18,10.8284271 17.3284271,11.5 16.5,11.5 C15.6715729,11.5 15,10.8284271 15,10 C15,9.17157288 15.6715729,8.5 16.5,8.5 Z" id="形状结合"></path>
            </g>
        </g>
    </g>
</svg>
